; G-Code generated by Simplify3D(R) Version 4.1.2
; Aug 10, 2019 at 5:30:59 PM
; Settings Summary
;   processName,Process1
;   applyToModels,inner_enclosure_v7,inner_enclosure_cover,inner_enclosure_v7(2),inner_enclosure_cover(2)
;   profileName,Ultimaker 2+ | Use this one (modified)
;   profileVersion,2019-07-16 20:24:48
;   baseProfile,Ultimaker 2+
;   printMaterial,PLA
;   printQuality,Fast
;   printExtruders,
;   extruderName,Primary Extruder
;   extruderToolheadNumber,0
;   extruderDiameter,0.4
;   extruderAutoWidth,0
;   extruderWidth,0.4
;   extrusionMultiplier,1
;   extruderUseRetract,1
;   extruderRetractionDistance,6
;   extruderExtraRestartDistance,0
;   extruderRetractionZLift,0
;   extruderRetractionSpeed,1500
;   extruderUseCoasting,1
;   extruderCoastingDistance,1
;   extruderUseWipe,0
;   extruderWipeDistance,2
;   primaryExtruder,0
;   layerHeight,0.25
;   topSolidLayers,3
;   bottomSolidLayers,3
;   perimeterOutlines,2
;   printPerimetersInsideOut,1
;   startPointOption,2
;   startPointOriginX,0
;   startPointOriginY,0
;   sequentialIslands,0
;   spiralVaseMode,0
;   firstLayerHeightPercentage,100
;   firstLayerWidthPercentage,100
;   firstLayerUnderspeed,0.3
;   useRaft,0
;   raftExtruder,0
;   raftTopLayers,3
;   raftBaseLayers,2
;   raftOffset,3
;   raftSeparationDistance,0.14
;   raftTopInfill,100
;   aboveRaftSpeedMultiplier,0.3
;   useSkirt,1
;   skirtExtruder,0
;   skirtLayers,1
;   skirtOutlines,2
;   skirtOffset,4
;   usePrimePillar,0
;   primePillarExtruder,999
;   primePillarWidth,12
;   primePillarLocation,7
;   primePillarSpeedMultiplier,1
;   useOozeShield,0
;   oozeShieldExtruder,999
;   oozeShieldOffset,2
;   oozeShieldOutlines,1
;   oozeShieldSidewallShape,1
;   oozeShieldSidewallAngle,30
;   oozeShieldSpeedMultiplier,1
;   infillExtruder,0
;   internalInfillPattern,Rectilinear
;   externalInfillPattern,Rectilinear
;   infillPercentage,10
;   outlineOverlapPercentage,35
;   infillExtrusionWidthPercentage,125
;   minInfillLength,3
;   infillLayerInterval,1
;   internalInfillAngles,45,-45
;   overlapInternalInfillAngles,0
;   externalInfillAngles,45,-45
;   generateSupport,1
;   supportExtruder,0
;   supportInfillPercentage,25
;   supportExtraInflation,0
;   supportBaseLayers,0
;   denseSupportExtruder,0
;   denseSupportLayers,0
;   denseSupportInfillPercentage,70
;   supportLayerInterval,1
;   supportHorizontalPartOffset,0.3
;   supportUpperSeparationLayers,1
;   supportLowerSeparationLayers,1
;   supportType,1
;   supportGridSpacing,4
;   maxOverhangAngle,45
;   supportAngles,0
;   temperatureName,Primary Extruder,Heated Build Platform
;   temperatureNumber,0,1
;   temperatureSetpointCount,1,1
;   temperatureSetpointLayers,1,1
;   temperatureSetpointTemperatures,205,60
;   temperatureStabilizeAtStartup,1,1
;   temperatureHeatedBed,0,1
;   fanLayers,1,2
;   fanSpeeds,0,100
;   blipFanToFullPower,1
;   adjustSpeedForCooling,1
;   minSpeedLayerTime,15
;   minCoolingSpeedSlowdown,20
;   increaseFanForCooling,1
;   minFanLayerTime,10
;   maxCoolingFanSpeed,30
;   increaseFanForBridging,1
;   bridgingFanSpeed,45
;   use5D,1
;   relativeEdistances,0
;   allowEaxisZeroing,1
;   independentExtruderAxes,0
;   includeM10123,0
;   stickySupport,1
;   applyToolheadOffsets,0
;   gcodeXoffset,0
;   gcodeYoffset,0
;   gcodeZoffset,0
;   overrideMachineDefinition,1
;   machineTypeOverride,0
;   strokeXoverride,223
;   strokeYoverride,223
;   strokeZoverride,205
;   originOffsetXoverride,0
;   originOffsetYoverride,0
;   originOffsetZoverride,0
;   homeXdirOverride,-1
;   homeYdirOverride,-1
;   homeZdirOverride,-1
;   flipXoverride,1
;   flipYoverride,-1
;   flipZoverride,1
;   toolheadOffsets,0,0|0,0|0,0|0,0|0,0|0,0
;   overrideFirmwareConfiguration,1
;   firmwareTypeOverride,RepRap (Marlin/Repetier/Sprinter)
;   GPXconfigOverride,r2
;   baudRateOverride,250000
;   overridePrinterModels,1
;   printerModelsOverride
;   startingGcode,G28 ; home all axes,G1 X20 Y10 F3000 ; bring extruder to front,G92 E0 ; zero the extruded length,G1 Z10 ; lower,G1 E19 F200 ; purge nozzle quickly,G1 E26 F60 ; purge nozzle slowly,G92 E0 ; zero the extruded length again,G1 E-5.5 F400 ; retract,G1 X190 Z0 F9000 ; pull away filament,G1 X210 F9000 ; wipe,G1 Y20 F9000 ; wipe,G1 E0 ; feed filament back
;   layerChangeGcode,
;   retractionGcode,
;   toolChangeGcode,
;   endingGcode,G28 X0 ; home the X-axis,M104 S0 ; turn off heaters,M140 S0 ; turn off bed,M84 ; disable motors
;   exportFileFormat,gcode
;   celebration,0
;   celebrationSong,Random Song
;   postProcessing,
;   defaultSpeed,2500
;   outlineUnderspeed,0.65
;   solidInfillUnderspeed,0.7
;   supportUnderspeed,0.7
;   rapidXYspeed,6000
;   rapidZspeed,1000
;   minBridgingArea,5
;   bridgingExtraInflation,0
;   bridgingExtrusionMultiplier,1
;   bridgingSpeedMultiplier,0.5
;   useFixedBridgingAngle,0
;   fixedBridgingAngle,0
;   applyBridgingToPerimeters,0
;   filamentDiameters,2.85|2.85|2.85|2.85|2.85|2.85
;   filamentPricesPerKg,41.5|41.5|41.5|41.5|41.5|41.5
;   filamentDensities,1.25|1.25|1.25|1.25|1.25|1.25
;   useMinPrintHeight,0
;   minPrintHeight,0
;   useMaxPrintHeight,0
;   maxPrintHeight,0
;   useDiaphragm,0
;   diaphragmLayerInterval,20
;   robustSlicing,1
;   mergeAllIntoSolid,0
;   onlyRetractWhenCrossingOutline,1
;   retractBetweenLayers,0
;   useRetractionMinTravel,1
;   retractionMinTravel,0.02
;   retractWhileWiping,0
;   onlyWipeOutlines,1
;   avoidCrossingOutline,0
;   maxMovementDetourFactor,3
;   toolChangeRetractionDistance,12
;   toolChangeExtraRestartDistance,-0.5
;   toolChangeRetractionSpeed,600
;   externalThinWallType,0
;   internalThinWallType,2
;   thinWallAllowedOverlapPercentage,10
;   singleExtrusionMinLength,1
;   singleExtrusionMinPrintingWidthPercentage,50
;   singleExtrusionMaxPrintingWidthPercentage,200
;   singleExtrusionEndpointExtension,0.2
;   horizontalSizeCompensation,0
G90
M82
M106 S0
M140 S60
M190 S60
M104 S205 T0
M109 S205 T0
G28 ; home all axes
G1 X20 Y10 F3000 ; bring extruder to front
G92 E0 ; zero the extruded length
G1 Z10 ; lower
G1 E19 F200 ; purge nozzle quickly
G1 E26 F60 ; purge nozzle slowly
G92 E0 ; zero the extruded length again
G1 E-5.5 F400 ; retract
G1 X190 Z0 F9000 ; pull away filament
G1 X210 F9000 ; wipe
G1 Y20 F9000 ; wipe
G1 E0 ; feed filament back
; process Process1
; layer 1, Z = 0.250
T0
G92 E0.0000
G1 E-6.0000 F1500
; feature skirt
; tool H0.250 W0.400
G1 Z0.250 F1000
G1 X83.400 Y52.095 F6000
G1 E0.0000 F1500
G92 E0.0000
G1 X86.095 Y49.400 E0.0597 F750
G1 X136.905 Y49.400 E0.8562
G1 X138.000 Y50.495 E0.8805
G1 X139.095 Y49.400 E0.9047
G1 X189.905 Y49.400 E1.7012
G1 X192.600 Y52.095 E1.7610
G1 X192.600 Y110.905 E2.6829
G1 X192.005 Y111.500 E2.6960
G1 X192.600 Y112.095 E2.7092
G1 X192.600 Y170.905 E3.6311
G1 X189.905 Y173.600 E3.6908
G1 X139.095 Y173.600 E4.4873
G1 X138.000 Y172.505 E4.5116
G1 X136.905 Y173.600 E4.5359
G1 X86.095 Y173.600 E5.3323
G1 X83.400 Y170.905 E5.3921
G1 X83.400 Y112.095 E6.3140
G1 X83.995 Y111.500 E6.3271
G1 X83.400 Y110.905 E6.3403
G1 X83.400 Y52.095 E7.2622
G92 E0.0000
G1 E-6.0000 F1500
G1 X83.800 Y52.260 F6000
G1 E0.0000 F1500
G92 E0.0000
G1 X86.260 Y49.800 E0.0545 F750
G1 X136.740 Y49.800 E0.8458
G1 X138.000 Y51.060 E0.8738
G1 X139.260 Y49.800 E0.9017
G1 X189.740 Y49.800 E1.6930
G1 X192.200 Y52.260 E1.7475
G1 X192.200 Y110.740 E2.6642
G1 X191.440 Y111.500 E2.6811
G1 X192.200 Y112.260 E2.6979
G1 X192.200 Y170.740 E3.6146
G1 X189.740 Y173.200 E3.6692
G1 X139.260 Y173.200 E4.4605
G1 X138.000 Y171.940 E4.4884
G1 X136.740 Y173.200 E4.5163
G1 X86.260 Y173.200 E5.3076
G1 X83.800 Y170.740 E5.3622
G1 X83.800 Y112.260 E6.2789
G1 X84.560 Y111.500 E6.2957
G1 X83.800 Y110.740 E6.3126
G1 X83.800 Y52.260 E7.2293
G92 E0.0000
G1 E-6.0000 F1500
; feature inner perimeter
G1 X88.600 Y54.600 F6000
G1 E0.0000 F1500
G92 E0.0000
G1 X134.400 Y54.600 E0.7179 F619
G1 X134.400 Y108.400 E1.5613
G1 X88.600 Y108.400 E2.2792
G1 X88.600 Y55.600 E3.1069
G1 X88.600 Y54.600 F619
; feature outer perimeter
G1 X88.200 Y54.200 F6000
G92 E0.0000
G1 X134.800 Y54.200 E0.7305 F488
G1 X134.800 Y108.800 E1.5864
G1 X88.200 Y108.800 E2.3168
G1 X88.200 Y55.200 E3.1570
G1 X88.200 Y54.200 F488
; feature inner perimeter
G1 X101.400 Y69.400 F6000
G92 E0.0000
G1 X101.400 Y71.200 E0.0282 F619
G1 X109.800 Y71.200 E0.1599
G1 X109.800 Y77.800 E0.2633
G1 X101.400 Y77.800 E0.3950
G1 X101.400 Y79.600 E0.4232
G1 X111.600 Y79.600 E0.5831
G1 X111.600 Y75.600 E0.6458
G1 X113.600 Y75.600 E0.6772
G1 X113.600 Y72.400 E0.7273
G1 X111.600 Y72.400 E0.7587
G1 X111.600 Y69.400 E0.8057
G1 X102.400 Y69.400 E0.9499
G1 X101.400 Y69.400 F619
; feature outer perimeter
G1 X101.800 Y69.800 F6000
G92 E0.0000
G1 X101.800 Y70.800 E0.0157 F488
G1 X110.200 Y70.800 E0.1473
G1 X110.200 Y78.200 E0.2633
G1 X101.800 Y78.200 E0.3950
G1 X101.800 Y79.200 E0.4107
G1 X111.200 Y79.200 E0.5580
G1 X111.200 Y75.200 E0.6207
G1 X113.200 Y75.200 E0.6521
G1 X113.200 Y72.800 E0.6897
G1 X111.200 Y72.800 E0.7211
G1 X111.200 Y69.800 E0.7681
G1 X102.800 Y69.800 E0.8998
G1 X101.800 Y69.800 F488
G92 E0.0000
G1 E-6.0000 F1500
; feature inner perimeter
G1 X115.426 Y73.700 F6000
G1 E0.0000 F1500
G92 E0.0000
G1 X115.397 Y74.000 E0.0047 F619
G1 X115.427 Y74.310 E0.0096
G1 X115.545 Y74.674 E0.0156
G1 X115.703 Y74.942 E0.0205
G1 X115.903 Y75.168 E0.0252
G1 X116.141 Y75.353 E0.0299
G1 X116.410 Y75.490 E0.0347
G1 X116.700 Y75.574 E0.0394
G1 X117.000 Y75.603 E0.0441
G1 X117.300 Y75.574 E0.0489
G1 X117.590 Y75.490 E0.0536
G1 X117.859 Y75.353 E0.0583
G1 X118.097 Y75.168 E0.0630
G1 X118.297 Y74.942 E0.0678
G1 X118.450 Y74.682 E0.0725
G1 X118.556 Y74.390 E0.0774
G1 X118.604 Y74.009 E0.0834
G1 X118.573 Y73.690 E0.0884
G1 X118.455 Y73.326 E0.0944
G1 X118.297 Y73.058 E0.0993
G1 X118.097 Y72.832 E0.1040
G1 X117.859 Y72.647 E0.1088
G1 X117.590 Y72.510 E0.1135
G1 X117.300 Y72.426 E0.1182
G1 X117.000 Y72.397 E0.1229
G1 X116.690 Y72.427 E0.1278
G1 X116.326 Y72.545 E0.1338
G1 X116.058 Y72.703 E0.1387
G1 X115.903 Y72.840 E0.1419
G1 X115.832 Y72.903 F619
G1 X115.647 Y73.141
G1 X115.510 Y73.410
G1 X115.426 Y73.700
; feature outer perimeter
G1 X115.820 Y73.775 F6000
G92 E0.0000
G1 X115.799 Y74.000 E0.0035 F488
G1 X115.821 Y74.228 E0.0071
G1 X115.912 Y74.509 E0.0118
G1 X116.028 Y74.706 E0.0154
G1 X116.178 Y74.875 E0.0189
G1 X116.357 Y75.014 E0.0224
G1 X116.558 Y75.117 E0.0260
G1 X116.775 Y75.180 E0.0295
G1 X117.000 Y75.201 E0.0331
G1 X117.225 Y75.180 E0.0366
G1 X117.442 Y75.117 E0.0402
G1 X117.643 Y75.014 E0.0437
G1 X117.822 Y74.875 E0.0472
G1 X117.972 Y74.706 E0.0508
G1 X118.087 Y74.511 E0.0543
G1 X118.164 Y74.296 E0.0579
G1 X118.201 Y74.003 E0.0625
G1 X118.179 Y73.772 E0.0662
G1 X118.088 Y73.491 E0.0708
G1 X117.972 Y73.294 E0.0744
G1 X117.822 Y73.125 E0.0779
G1 X117.643 Y72.986 E0.0815
G1 X117.442 Y72.883 E0.0850
G1 X117.225 Y72.820 E0.0886
G1 X117.000 Y72.799 E0.0921
G1 X116.772 Y72.821 E0.0957
G1 X116.491 Y72.912 E0.1003
G1 X116.377 Y72.980 E0.1024
G1 X116.294 Y73.028 F488
G1 X116.125 Y73.178
G1 X115.986 Y73.357
G1 X115.883 Y73.558
G1 X115.820 Y73.775
; feature solid layer
G1 X115.227 Y73.453 F6000
G92 E0.0000
G1 X111.860 Y70.086 E0.0746 F525
G1 X111.860 Y70.652 E0.0835
G1 X113.348 Y72.140 E0.1165
G1 X113.860 Y72.140 E0.1245
G1 X113.860 Y72.652 E0.1325
G1 X115.142 Y73.935 E0.1610
G1 X115.136 Y74.000 E0.1620
G1 X115.170 Y74.363 E0.1677
G1 X115.250 Y74.608 E0.1718
G1 X113.860 Y73.218 E0.2026
G1 X113.860 Y73.784 E0.2114
G1 X134.140 Y94.064 E0.6610
G1 X134.140 Y93.498 E0.6699
G1 X116.400 Y75.758 E1.0631
G1 X116.651 Y75.831 E1.0672
G1 X117.000 Y75.864 E1.0727
G1 X117.065 Y75.858 E1.0738
G1 X134.140 Y92.932 E1.4523
G1 X134.140 Y92.366 E1.4611
G1 X117.547 Y75.773 E1.8290
G1 X117.686 Y75.733 E1.8313
G1 X117.942 Y75.603 E1.8358
G1 X134.140 Y91.801 E2.1949
G1 X134.140 Y91.235 E2.2037
G1 X118.269 Y75.364 E2.5556
G1 X118.276 Y75.359 E2.5557
G1 X118.508 Y75.096 E2.5612
G1 X118.530 Y75.059 E2.5619
G1 X134.140 Y90.669 E2.9079
G1 X134.140 Y90.104 E2.9168
G1 X118.724 Y74.688 E3.2585
G1 X118.810 Y74.451 E3.2625
G1 X118.837 Y74.235 E3.2659
G1 X134.140 Y89.538 E3.6051
G1 X134.140 Y88.972 E3.6140
G1 X119.539 Y74.372 E3.9377
G1 X118.832 Y73.665 F525
G92 E0.0000
G1 E-6.0000 F1500
G1 X113.860 Y74.349 F6000
G1 E0.0000 F1500
G92 E0.0000
G1 X134.140 Y94.629 E0.4496 F525
G1 X134.140 Y95.195 E0.4584
G1 X113.860 Y74.915 E0.9080
G1 X113.860 Y75.481 E0.9169
G1 X134.140 Y95.761 E1.3665
G1 X134.140 Y96.326 E1.3753
G1 X113.674 Y75.860 E1.8290
G1 X113.108 Y75.860 E1.8379
G1 X134.140 Y96.892 E2.3042
G1 X134.140 Y97.458 E2.3130
G1 X112.542 Y75.860 E2.7918
G1 X111.977 Y75.860 E2.8007
G1 X134.140 Y98.023 E3.2920
G1 X134.140 Y98.589 E3.3009
G1 X111.860 Y76.309 E3.7948
G1 X111.860 Y76.875 E3.8036
G1 X134.140 Y99.155 E4.2976
G1 X134.140 Y99.720 E4.3064
G1 X111.860 Y77.440 E4.8003
G1 X111.860 Y78.006 E4.8092
G1 X134.140 Y100.286 E5.3031
G1 X134.140 Y100.852 E5.3120
G1 X111.860 Y78.572 E5.8059
G1 X111.860 Y79.137 E5.8148
G1 X134.140 Y101.417 E6.3087
G1 X134.140 Y101.983 E6.3175
G1 X111.860 Y79.703 E6.8115
G1 X111.860 Y79.860 E6.8139
G1 X111.451 Y79.860 E6.8203
G1 X134.140 Y102.549 E7.3233
G1 X134.140 Y103.115 E7.3322
G1 X110.885 Y79.860 E7.8477
G1 X110.320 Y79.860 E7.8566
G1 X134.140 Y103.680 E8.3846
G1 X134.140 Y104.246 E8.3935
G1 X109.754 Y79.860 E8.9341
G1 X109.188 Y79.860 E8.9429
G1 X134.140 Y104.812 E9.4961
G1 X134.140 Y105.377 E9.5050
G1 X108.623 Y79.860 E10.0706
G1 X108.057 Y79.860 E10.0795
G1 X134.140 Y105.943 E10.6577
G1 X134.140 Y106.509 E10.6666
G1 X107.491 Y79.860 E11.2573
G1 X106.926 Y79.860 E11.2662
G1 X134.140 Y107.074 E11.8695
G1 X134.140 Y107.640 E11.8784
G1 X106.360 Y79.860 E12.4942
G1 X105.794 Y79.860 E12.5031
G1 X134.074 Y108.140 E13.1300
G1 X133.509 Y108.140 E13.1389
G1 X105.229 Y79.860 E13.7658
G1 X104.663 Y79.860 E13.7747
G1 X132.943 Y108.140 E14.4016
G1 X132.377 Y108.140 E14.4105
G1 X104.097 Y79.860 E15.0374
G1 X103.532 Y79.860 E15.0462
G1 X131.812 Y108.140 E15.6732
G1 X131.246 Y108.140 E15.6820
G1 X102.966 Y79.860 E16.3090
G1 X102.400 Y79.860 E16.3178
G1 X130.680 Y108.140 E16.9448
G1 X130.115 Y108.140 E16.9536
G1 X102.542 Y80.567 E17.5649
G1 X101.835 Y79.860 F525
G92 E0.0000
G1 E-6.0000 F1500
G1 X107.434 Y77.540 F6000
G1 E0.0000 F1500
G92 E0.0000
G1 X101.354 Y71.460 E0.1348 F525
G1 X101.920 Y71.460 E0.1437
G1 X108.000 Y77.540 E0.2784
G1 X108.565 Y77.540 E0.2873
G1 X102.485 Y71.460 E0.4221
G1 X103.051 Y71.460 E0.4310
G1 X109.131 Y77.540 E0.5657
G1 X109.540 Y77.540 E0.5721
G1 X109.540 Y77.383 E0.5746
G1 X103.617 Y71.460 E0.7059
G1 X104.183 Y71.460 E0.7148
G1 X109.540 Y76.817 E0.8335
G1 X109.540 Y76.252 E0.8424
G1 X104.748 Y71.460 E0.9486
G1 X105.314 Y71.460 E0.9575
G1 X109.540 Y75.686 E1.0512
G1 X109.540 Y75.120 E1.0601
G1 X105.880 Y71.460 E1.1412
G1 X106.445 Y71.460 E1.1501
G1 X109.540 Y74.555 E1.2187
G1 X109.540 Y73.989 E1.2275
G1 X107.011 Y71.460 E1.2836
G1 X107.577 Y71.460 E1.2925
G1 X109.540 Y73.423 E1.3360
G1 X109.540 Y72.858 E1.3449
G1 X108.142 Y71.460 E1.3759
G1 X108.708 Y71.460 E1.3847
G1 X109.499 Y72.251 E1.4023
G1 X109.540 Y72.292 F525
G1 X109.540 Y71.726
G1 X109.274 Y71.460
G92 E0.0000
G1 E-6.0000 F1500
G1 X111.860 Y71.218 F6000
G1 E0.0000 F1500
G92 E0.0000
G1 X112.782 Y72.140 E0.0204 F525
G1 X112.712 Y72.140 E0.0215
G1 X112.216 Y72.140 F525
G1 X111.860 Y71.784
G1 X133.969 Y54.860 F6000
G92 E0.0000
G1 X134.140 Y55.031 E0.0038 F525
G1 X134.140 Y55.597 E0.0127
G1 X133.403 Y54.860 E0.0290
G1 X132.837 Y54.860 E0.0379
G1 X134.140 Y56.163 E0.0667
G1 X134.140 Y56.728 E0.0756
G1 X132.272 Y54.860 E0.1170
G1 X131.706 Y54.860 E0.1259
G1 X134.140 Y57.294 E0.1799
G1 X134.140 Y57.860 E0.1887
G1 X131.140 Y54.860 E0.2552
G1 X130.575 Y54.860 E0.2641
G1 X134.140 Y58.425 E0.3431
G1 X134.140 Y58.991 E0.3520
G1 X130.009 Y54.860 E0.4436
G1 X129.443 Y54.860 E0.4524
G1 X134.140 Y59.557 E0.5566
G1 X134.140 Y60.122 E0.5654
G1 X128.878 Y54.860 E0.6821
G1 X128.312 Y54.860 E0.6910
G1 X134.140 Y60.688 E0.8202
G1 X134.140 Y61.254 E0.8290
G1 X127.746 Y54.860 E0.9708
G1 X127.181 Y54.860 E0.9796
G1 X134.140 Y61.819 E1.1339
G1 X134.140 Y62.385 E1.1428
G1 X126.615 Y54.860 E1.3096
G1 X126.049 Y54.860 E1.3185
