; G-Code generated by Simplify3D(R) Version 4.1.2
; Jul 26, 2019 at 10:45:30 PM
; Settings Summary
;   processName,Process1
;   applyToModels,inner_enclosure
;   profileName,Ultimaker 2+ | Use this one
;   profileVersion,2019-07-16 20:24:48
;   baseProfile,Ultimaker 2+
;   printMaterial,PLA
;   printQuality,Fast
;   printExtruders,
;   extruderName,Primary Extruder
;   extruderToolheadNumber,0
;   extruderDiameter,0.4
;   extruderAutoWidth,0
;   extruderWidth,0.4
;   extrusionMultiplier,1
;   extruderUseRetract,1
;   extruderRetractionDistance,6
;   extruderExtraRestartDistance,0
;   extruderRetractionZLift,0
;   extruderRetractionSpeed,1500
;   extruderUseCoasting,1
;   extruderCoastingDistance,1
;   extruderUseWipe,0
;   extruderWipeDistance,2
;   primaryExtruder,0
;   layerHeight,0.25
;   topSolidLayers,3
;   bottomSolidLayers,3
;   perimeterOutlines,2
;   printPerimetersInsideOut,1
;   startPointOption,2
;   startPointOriginX,0
;   startPointOriginY,0
;   sequentialIslands,0
;   spiralVaseMode,0
;   firstLayerHeightPercentage,100
;   firstLayerWidthPercentage,100
;   firstLayerUnderspeed,0.3
;   useRaft,0
;   raftExtruder,0
;   raftTopLayers,3
;   raftBaseLayers,2
;   raftOffset,3
;   raftSeparationDistance,0.14
;   raftTopInfill,100
;   aboveRaftSpeedMultiplier,0.3
;   useSkirt,1
;   skirtExtruder,0
;   skirtLayers,1
;   skirtOutlines,2
;   skirtOffset,4
;   usePrimePillar,0
;   primePillarExtruder,999
;   primePillarWidth,12
;   primePillarLocation,7
;   primePillarSpeedMultiplier,1
;   useOozeShield,0
;   oozeShieldExtruder,999
;   oozeShieldOffset,2
;   oozeShieldOutlines,1
;   oozeShieldSidewallShape,1
;   oozeShieldSidewallAngle,30
;   oozeShieldSpeedMultiplier,1
;   infillExtruder,0
;   internalInfillPattern,Rectilinear
;   externalInfillPattern,Rectilinear
;   infillPercentage,10
;   outlineOverlapPercentage,35
;   infillExtrusionWidthPercentage,125
;   minInfillLength,3
;   infillLayerInterval,1
;   internalInfillAngles,45,-45
;   overlapInternalInfillAngles,0
;   externalInfillAngles,45,-45
;   generateSupport,0
;   supportExtruder,0
;   supportInfillPercentage,25
;   supportExtraInflation,0
;   supportBaseLayers,0
;   denseSupportExtruder,0
;   denseSupportLayers,0
;   denseSupportInfillPercentage,70
;   supportLayerInterval,1
;   supportHorizontalPartOffset,0.3
;   supportUpperSeparationLayers,1
;   supportLowerSeparationLayers,1
;   supportType,1
;   supportGridSpacing,4
;   maxOverhangAngle,45
;   supportAngles,0
;   temperatureName,Primary Extruder,Heated Build Platform
;   temperatureNumber,0,1
;   temperatureSetpointCount,1,1
;   temperatureSetpointLayers,1,1
;   temperatureSetpointTemperatures,205,60
;   temperatureStabilizeAtStartup,1,1
;   temperatureHeatedBed,0,1
;   fanLayers,1,2
;   fanSpeeds,0,100
;   blipFanToFullPower,1
;   adjustSpeedForCooling,1
;   minSpeedLayerTime,15
;   minCoolingSpeedSlowdown,20
;   increaseFanForCooling,1
;   minFanLayerTime,10
;   maxCoolingFanSpeed,30
;   increaseFanForBridging,1
;   bridgingFanSpeed,45
;   use5D,1
;   relativeEdistances,0
;   allowEaxisZeroing,1
;   independentExtruderAxes,0
;   includeM10123,0
;   stickySupport,1
;   applyToolheadOffsets,0
;   gcodeXoffset,0
;   gcodeYoffset,0
;   gcodeZoffset,0
;   overrideMachineDefinition,1
;   machineTypeOverride,0
;   strokeXoverride,223
;   strokeYoverride,223
;   strokeZoverride,205
;   originOffsetXoverride,0
;   originOffsetYoverride,0
;   originOffsetZoverride,0
;   homeXdirOverride,-1
;   homeYdirOverride,-1
;   homeZdirOverride,-1
;   flipXoverride,1
;   flipYoverride,-1
;   flipZoverride,1
;   toolheadOffsets,0,0|0,0|0,0|0,0|0,0|0,0
;   overrideFirmwareConfiguration,1
;   firmwareTypeOverride,RepRap (Marlin/Repetier/Sprinter)
;   GPXconfigOverride,r2
;   baudRateOverride,250000
;   overridePrinterModels,1
;   printerModelsOverride
;   startingGcode,G28 ; home all axes,G1 X20 Y10 F3000 ; bring extruder to front,G92 E0 ; zero the extruded length,G1 Z10 ; lower,G1 E19 F200 ; purge nozzle quickly,G1 E26 F60 ; purge nozzle slowly,G92 E0 ; zero the extruded length again,G1 E-5.5 F400 ; retract,G1 X190 Z0 F9000 ; pull away filament,G1 X210 F9000 ; wipe,G1 Y20 F9000 ; wipe,G1 E0 ; feed filament back
;   layerChangeGcode,
;   retractionGcode,
;   toolChangeGcode,
;   endingGcode,G28 X0 ; home the X-axis,M104 S0 ; turn off heaters,M140 S0 ; turn off bed,M84 ; disable motors
;   exportFileFormat,gcode
;   celebration,0
;   celebrationSong,Random Song
;   postProcessing,
;   defaultSpeed,2500
;   outlineUnderspeed,0.65
;   solidInfillUnderspeed,0.7
;   supportUnderspeed,0.7
;   rapidXYspeed,6000
;   rapidZspeed,1000
;   minBridgingArea,5
;   bridgingExtraInflation,0
;   bridgingExtrusionMultiplier,1
;   bridgingSpeedMultiplier,0.5
;   useFixedBridgingAngle,0
;   fixedBridgingAngle,0
;   applyBridgingToPerimeters,0
;   filamentDiameters,2.85|2.85|2.85|2.85|2.85|2.85
;   filamentPricesPerKg,41.5|41.5|41.5|41.5|41.5|41.5
;   filamentDensities,1.25|1.25|1.25|1.25|1.25|1.25
;   useMinPrintHeight,0
;   minPrintHeight,0
;   useMaxPrintHeight,0
;   maxPrintHeight,0
;   useDiaphragm,0
;   diaphragmLayerInterval,20
;   robustSlicing,1
;   mergeAllIntoSolid,0
;   onlyRetractWhenCrossingOutline,1
;   retractBetweenLayers,0
;   useRetractionMinTravel,1
;   retractionMinTravel,0.02
;   retractWhileWiping,0
;   onlyWipeOutlines,1
;   avoidCrossingOutline,0
;   maxMovementDetourFactor,3
;   toolChangeRetractionDistance,12
;   toolChangeExtraRestartDistance,-0.5
;   toolChangeRetractionSpeed,600
;   externalThinWallType,0
;   internalThinWallType,2
;   thinWallAllowedOverlapPercentage,10
;   singleExtrusionMinLength,1
;   singleExtrusionMinPrintingWidthPercentage,50
;   singleExtrusionMaxPrintingWidthPercentage,200
;   singleExtrusionEndpointExtension,0.2
;   horizontalSizeCompensation,0
G90
M82
M106 S0
M140 S60
M190 S60
M104 S205 T0
M109 S205 T0
G28 ; home all axes
G1 X20 Y10 F3000 ; bring extruder to front
G92 E0 ; zero the extruded length
G1 Z10 ; lower
G1 E19 F200 ; purge nozzle quickly
G1 E26 F60 ; purge nozzle slowly
G92 E0 ; zero the extruded length again
G1 E-5.5 F400 ; retract
G1 X190 Z0 F9000 ; pull away filament
G1 X210 F9000 ; wipe
G1 Y20 F9000 ; wipe
G1 E0 ; feed filament back
; process Process1
; layer 1, Z = 0.250
T0
G92 E0.0000
G1 E-6.0000 F1500
; feature skirt
; tool H0.250 W0.400
G1 Z0.250 F1000
G1 X83.900 Y82.595 F6000
G1 E0.0000 F1500
G92 E0.0000
G1 X86.595 Y79.900 E0.0597 F750
G1 X136.405 Y79.900 E0.8405
G1 X139.100 Y82.595 E0.9003
G1 X139.100 Y140.405 E1.8065
G1 X136.405 Y143.100 E1.8662
G1 X86.595 Y143.100 E2.6470
G1 X83.900 Y140.405 E2.7068
G1 X83.900 Y82.595 E3.6130
G92 E0.0000
G1 E-6.0000 F1500
G1 X84.300 Y82.760 F6000
G1 E0.0000 F1500
G92 E0.0000
G1 X86.760 Y80.300 E0.0545 F750
G1 X136.240 Y80.300 E0.8302
G1 X138.700 Y82.760 E0.8847
G1 X138.700 Y140.240 E1.7857
G1 X136.240 Y142.700 E1.8403
G1 X86.760 Y142.700 E2.6159
G1 X84.300 Y140.240 E2.6704
G1 X84.300 Y82.760 E3.5714
G92 E0.0000
G1 E-6.0000 F1500
; feature inner perimeter
G1 X89.100 Y85.100 F6000
G1 E0.0000 F1500
G92 E0.0000
G1 X133.900 Y85.100 E0.7023 F619
G1 X133.900 Y137.900 E1.5299
G1 X89.100 Y137.900 E2.2322
G1 X89.100 Y86.100 E3.0442
G1 X89.100 Y85.100 F619
; feature outer perimeter
G1 X88.700 Y84.700 F6000
G92 E0.0000
G1 X134.300 Y84.700 E0.7148 F488
G1 X134.300 Y138.300 E1.5550
G1 X88.700 Y138.300 E2.2698
G1 X88.700 Y85.700 E3.0943
G1 X88.700 Y84.700 F488
; feature solid layer
G1 X133.443 Y85.360 F6000
G92 E0.0000
G1 X133.640 Y85.557 E0.0044 F525
G1 X133.640 Y86.122 E0.0132
G1 X132.878 Y85.360 E0.0301
G1 X132.312 Y85.360 E0.0390
G1 X133.640 Y86.688 E0.0684
G1 X133.640 Y87.254 E0.0773
G1 X131.746 Y85.360 E0.1193
G1 X131.181 Y85.360 E0.1282
G1 X133.640 Y87.819 E0.1827
G1 X133.640 Y88.385 E0.1915
G1 X130.615 Y85.360 E0.2586
G1 X130.049 Y85.360 E0.2675
G1 X133.640 Y88.951 E0.3471
G1 X133.640 Y89.517 E0.3559
G1 X129.483 Y85.360 E0.4481
G1 X128.918 Y85.360 E0.4570
G1 X133.640 Y90.082 E0.5616
G1 X133.640 Y90.648 E0.5705
G1 X128.352 Y85.360 E0.6877
G1 X127.786 Y85.360 E0.6966
G1 X133.640 Y91.214 E0.8264
G1 X133.640 Y91.779 E0.8352
G1 X127.221 Y85.360 E0.9775
G1 X126.655 Y85.360 E0.9864
G1 X133.640 Y92.345 E1.1413
G1 X133.640 Y92.911 E1.1501
G1 X126.089 Y85.360 E1.3175
G1 X125.524 Y85.360 E1.3264
G1 X133.640 Y93.476 E1.5063
G1 X133.640 Y94.042 E1.5152
G1 X124.958 Y85.360 E1.7076
G1 X124.392 Y85.360 E1.7165
G1 X133.640 Y94.608 E1.9215
G1 X133.640 Y95.173 E1.9304
G1 X123.827 Y85.360 E2.1479
G1 X123.261 Y85.360 E2.1568
G1 X133.640 Y95.739 E2.3869
G1 X133.640 Y96.305 E2.3957
G1 X122.695 Y85.360 E2.6384
G1 X122.130 Y85.360 E2.6472
G1 X133.640 Y96.870 E2.9024
G1 X133.640 Y97.436 E2.9113
G1 X121.564 Y85.360 E3.1790
G1 X120.998 Y85.360 E3.1879
G1 X133.640 Y98.002 E3.4681
G1 X133.640 Y98.567 E3.4770
G1 X120.433 Y85.360 E3.7698
G1 X119.867 Y85.360 E3.7786
G1 X133.640 Y99.133 E4.0840
G1 X133.640 Y99.699 E4.0928
G1 X119.301 Y85.360 E4.4107
G1 X118.735 Y85.360 E4.4196
G1 X133.640 Y100.265 E4.7500
G1 X133.640 Y100.830 E4.7588
G1 X118.170 Y85.360 E5.1018
G1 X117.604 Y85.360 E5.1107
G1 X133.640 Y101.396 E5.4661
G1 X133.640 Y101.962 E5.4750
G1 X117.038 Y85.360 E5.8430
G1 X116.473 Y85.360 E5.8519
G1 X133.640 Y102.527 E6.2325
G1 X133.640 Y103.093 E6.2414
G1 X115.907 Y85.360 E6.6345
G1 X115.341 Y85.360 E6.6433
G1 X133.640 Y103.659 E7.0490
G1 X133.640 Y104.224 E7.0579
G1 X114.776 Y85.360 E7.4760
G1 X114.210 Y85.360 E7.4849
G1 X133.640 Y104.790 E7.9157
G1 X133.640 Y105.356 E7.9245
G1 X113.644 Y85.360 E8.3678
G1 X113.079 Y85.360 E8.3767
G1 X133.640 Y105.921 E8.8325
G1 X133.640 Y106.487 E8.8413
G1 X112.513 Y85.360 E9.3097
G1 X111.947 Y85.360 E9.3186
G1 X133.640 Y107.053 E9.7995
G1 X133.640 Y107.618 E9.8083
G1 X111.382 Y85.360 E10.3018
G1 X110.816 Y85.360 E10.3106
G1 X133.640 Y108.184 E10.8166
G1 X133.640 Y108.750 E10.8255
G1 X110.250 Y85.360 E11.3440
G1 X109.684 Y85.360 E11.3529
G1 X133.640 Y109.316 E11.8839
G1 X133.640 Y109.881 E11.8928
G1 X109.119 Y85.360 E12.4364
G1 X108.553 Y85.360 E12.4452
G1 X133.640 Y110.447 E13.0014
G1 X133.640 Y111.013 E13.0102
G1 X107.987 Y85.360 E13.5789
G1 X107.422 Y85.360 E13.5878
G1 X133.640 Y111.578 E14.1690
G1 X133.640 Y112.144 E14.1779
G1 X106.856 Y85.360 E14.7716
G1 X106.290 Y85.360 E14.7805
G1 X133.640 Y112.710 E15.3868
G1 X133.640 Y113.275 E15.3957
G1 X105.725 Y85.360 E16.0145
G1 X105.159 Y85.360 E16.0234
G1 X133.640 Y113.841 E16.6548
G1 X133.640 Y114.407 E16.6636
G1 X104.593 Y85.360 E17.3075
G1 X104.028 Y85.360 E17.3164
G1 X133.640 Y114.972 E17.9729
G1 X133.640 Y115.538 E17.9817
G1 X103.462 Y85.360 E18.6507
G1 X102.896 Y85.360 E18.6596
G1 X133.640 Y116.104 E19.3412
G1 X133.640 Y116.669 E19.3500
G1 X102.331 Y85.360 E20.0441
G1 X101.765 Y85.360 E20.0530
G1 X133.640 Y117.235 E20.7596
G1 X133.640 Y117.801 E20.7685
G1 X101.199 Y85.360 E21.4876
G1 X100.634 Y85.360 E21.4965
G1 X133.640 Y118.366 E22.2282
G1 X133.640 Y118.932 E22.2371
G1 X100.068 Y85.360 E22.9813
G1 X99.502 Y85.360 E22.9902
G1 X133.640 Y119.498 E23.7470
G1 X133.640 Y120.064 E23.7558
G1 X98.936 Y85.360 E24.5251
G1 X98.371 Y85.360 E24.5340
G1 X133.640 Y120.629 E25.3159
G1 X133.640 Y121.195 E25.3247
G1 X97.805 Y85.360 E26.1191
G1 X97.239 Y85.360 E26.1280
G1 X133.640 Y121.761 E26.9350
G1 X133.640 Y122.326 E26.9438
G1 X96.674 Y85.360 E27.7633
G1 X96.108 Y85.360 E27.7722
G1 X133.640 Y122.892 E28.6042
G1 X133.640 Y123.458 E28.6131
G1 X95.542 Y85.360 E29.4576
G1 X94.977 Y85.360 E29.4665
G1 X133.640 Y124.023 E30.3236
G1 X133.640 Y124.589 E30.3325
G1 X94.411 Y85.360 E31.2021
G1 X93.845 Y85.360 E31.2110
G1 X133.640 Y125.155 E32.0932
G1 X133.640 Y125.720 E32.1020
G1 X93.280 Y85.360 E32.9968
G1 X92.714 Y85.360 E33.0056
G1 X133.640 Y126.286 E33.9129
G1 X133.640 Y126.852 E33.9218
G1 X92.148 Y85.360 E34.8416
G1 X91.583 Y85.360 E34.8505
G1 X133.640 Y127.417 E35.7828
G1 X133.640 Y127.983 E35.7917
G1 X91.017 Y85.360 E36.7366
G1 X90.451 Y85.360 E36.7454
G1 X133.640 Y128.549 E37.7029
G1 X133.640 Y129.115 E37.7117
G1 X89.885 Y85.360 E38.6817
G1 X89.360 Y85.360 E38.6899
G1 X89.360 Y85.400 E38.6906
G1 X133.640 Y129.680 E39.6722
G1 X133.640 Y130.246 E39.6810
G1 X89.360 Y85.966 E40.6627
G1 X89.360 Y86.532 E40.6715
G1 X133.640 Y130.812 E41.6531
G1 X133.640 Y131.377 E41.6620
G1 X89.360 Y87.097 E42.6436
G1 X89.360 Y87.663 E42.6525
G1 X133.640 Y131.943 E43.6341
G1 X133.640 Y132.509 E43.6430
G1 X89.360 Y88.229 E44.6246
G1 X89.360 Y88.794 E44.6335
G1 X133.640 Y133.074 E45.6151
G1 X133.640 Y133.640 E45.6240
G1 X89.360 Y89.360 E46.6056
G1 X89.360 Y89.926 E46.6144
G1 X133.640 Y134.206 E47.5961
G1 X133.640 Y134.771 E47.6049
G1 X89.360 Y90.491 E48.5866
G1 X89.360 Y91.057 E48.5954
G1 X133.640 Y135.337 E49.5770
G1 X133.640 Y135.903 E49.5859
G1 X89.360 Y91.623 E50.5675
G1 X89.360 Y92.188 E50.5764
G1 X133.640 Y136.468 E51.5580
G1 X133.640 Y137.034 E51.5669
G1 X89.360 Y92.754 E52.5485
G1 X89.360 Y93.320 E52.5574
G1 X133.640 Y137.600 E53.5390
G1 X133.640 Y137.640 E53.5396
G1 X133.115 Y137.640 E53.5479
G1 X89.360 Y93.885 E54.5178
G1 X89.360 Y94.451 E54.5267
G1 X132.549 Y137.640 E55.4841
G1 X131.983 Y137.640 E55.4930
G1 X89.360 Y95.017 E56.4379
G1 X89.360 Y95.583 E56.4467
G1 X131.417 Y137.640 E57.3791
G1 X130.852 Y137.640 E57.3880
G1 X89.360 Y96.148 E58.3078
G1 X89.360 Y96.714 E58.3166
G1 X130.286 Y137.640 E59.2239
G1 X129.720 Y137.640 E59.2328
G1 X89.360 Y97.280 E60.1275
G1 X89.360 Y97.845 E60.1364
G1 X129.155 Y137.640 E61.0186
G1 X128.589 Y137.640 E61.0274
G1 X89.360 Y98.411 E61.8971
G1 X89.360 Y98.977 E61.9059
G1 X128.023 Y137.640 E62.7630
G1 X127.458 Y137.640 E62.7719
G1 X89.360 Y99.542 E63.6165
G1 X89.360 Y100.108 E63.6253
G1 X126.892 Y137.640 E64.4574
G1 X126.326 Y137.640 E64.4662
G1 X89.360 Y100.674 E65.2857
G1 X89.360 Y101.239 E65.2946
G1 X125.761 Y137.640 E66.1015
G1 X125.195 Y137.640 E66.1104
G1 X89.360 Y101.805 E66.9048
G1 X89.360 Y102.371 E66.9137
G1 X124.629 Y137.640 E67.6955
G1 X124.064 Y137.640 E67.7044
G1 X89.360 Y102.936 E68.4737
G1 X89.360 Y103.502 E68.4826
G1 X123.498 Y137.640 E69.2394
G1 X122.932 Y137.640 E69.2483
G1 X89.360 Y104.068 E69.9925
G1 X89.360 Y104.633 E70.0014
G1 X122.367 Y137.640 E70.7331
G1 X121.801 Y137.640 E70.7419
G1 X89.360 Y105.199 E71.4611
G1 X89.360 Y105.765 E71.4700
G1 X121.235 Y137.640 E72.1766
G1 X120.669 Y137.640 E72.1855
G1 X89.360 Y106.331 E72.8795
G1 X89.360 Y106.896 E72.8884
G1 X120.104 Y137.640 E73.5699
G1 X119.538 Y137.640 E73.5788
G1 X89.360 Y107.462 E74.2478
G1 X89.360 Y108.028 E74.2567
G1 X118.972 Y137.640 E74.9131
G1 X118.407 Y137.640 E74.9220
G1 X89.360 Y108.593 E75.5659
G1 X89.360 Y109.159 E75.5748
G1 X117.841 Y137.640 E76.2062
G1 X117.275 Y137.640 E76.2150
G1 X89.360 Y109.725 E76.8339
G1 X89.360 Y110.290 E76.8428
G1 X116.710 Y137.640 E77.4491
G1 X116.144 Y137.640 E77.4579
G1 X89.360 Y110.856 E78.0517
G1 X89.360 Y111.422 E78.0605
G1 X115.578 Y137.640 E78.6418
G1 X115.013 Y137.640 E78.6506
G1 X89.360 Y111.987 E79.2193
G1 X89.360 Y112.553 E79.2282
G1 X114.447 Y137.640 E79.7843
G1 X113.881 Y137.640 E79.7932
G1 X89.360 Y113.119 E80.3368
G1 X89.360 Y113.684 E80.3457
G1 X113.316 Y137.640 E80.8767
G1 X112.750 Y137.640 E80.8856
G1 X89.360 Y114.250 E81.4041
G1 X89.360 Y114.816 E81.4130
G1 X112.184 Y137.640 E81.9189
G1 X111.618 Y137.640 E81.9278
G1 X89.360 Y115.382 E82.4212
G1 X89.360 Y115.947 E82.4301
G1 X111.053 Y137.640 E82.9110
G1 X110.487 Y137.640 E82.9199
G1 X89.360 Y116.513 E83.3882
G1 X89.360 Y117.079 E83.3971
G1 X109.921 Y137.640 E83.8529
G1 X109.356 Y137.640 E83.8618
G1 X89.360 Y117.644 E84.3051
G1 X89.360 Y118.210 E84.3139
G1 X108.790 Y137.640 E84.7447
G1 X108.224 Y137.640 E84.7535
G1 X89.360 Y118.776 E85.1717
G1 X89.360 Y119.341 E85.1806
G1 X107.659 Y137.640 E85.5862
G1 X107.093 Y137.640 E85.5951
G1 X89.360 Y119.907 E85.9882
G1 X89.360 Y120.473 E85.9971
G1 X106.527 Y137.640 E86.3777
G1 X105.962 Y137.640 E86.3865
G1 X89.360 Y121.038 E86.7546
G1 X89.360 Y121.604 E86.7634
G1 X105.396 Y137.640 E87.1189
G1 X104.830 Y137.640 E87.1278
G1 X89.360 Y122.170 E87.4707
G1 X89.360 Y122.735 E87.4796
G1 X104.265 Y137.640 E87.8100
G1 X103.699 Y137.640 E87.8189
G1 X89.360 Y123.301 E88.1368
G1 X89.360 Y123.867 E88.1456
G1 X103.133 Y137.640 E88.4509
